X:1
T:Miss Corbett's -- Reel
R:reel
B:Ryan's Mammoth Collection
Z:Contributed by Ray Davies,  ray:davies99.freeserve.co.uk
M:C|
L:1/8
K:Dmix
vD2FD ADFD|EcGc Ecc2|D2FD ADFD|((3Bcd) Ad FDD2|
D2FD ADFD|EcGc Ecc2|D2FD ADFD|((3Bcd) Ad FDD2H||
((3fga) dg fdad|((3fga) cg ecgc|((3fga) dg fdad|((3Bcd) Ad FDDg|
fadg fdad|egcg ecgc|dfeg fagb|afge fdAF"D.C."||
